X: 1
T: Ed Reavy's
M: 4/4
L: 1/8
R: reel
K: Gmaj
d3 d dcAG | =F2 AF cFAF | Add^c d2 de | f2 dc AGGF | 
Gdd^c d=cAG | =F2 AF cFAF | Add^c d2 de | fdcA AG G2 |
g2 ge fdde | fgag fdde | fgaf g2 ag | fdcA AG G2 | 
g2 ge fdde | fgag fdef | gbag fdeg | fdcA AG G2 |
